img/icons/badge-popular.svg

<svg width="16" height="16" viewBox="0 0 16 16" fill="none" xmlns="http://www.w3.org/2000/svg">
<path d="M13.0328 7.33118C12.7295 6.64846 12.2885 6.03568 11.7375 5.53118L11.2828 5.114C11.2674 5.10022 11.2488 5.09044 11.2287 5.08552C11.2086 5.0806 11.1876 5.0807 11.1675 5.08579C11.1475 5.09088 11.129 5.10081 11.1137 5.11472C11.0984 5.12863 11.0867 5.14609 11.0797 5.16556L10.8766 5.74837C10.75 6.114 10.5172 6.48743 10.1875 6.85462C10.1656 6.87806 10.1406 6.88431 10.1234 6.88587C10.1063 6.88743 10.0797 6.88431 10.0562 6.86243C10.0344 6.84368 10.0234 6.81556 10.025 6.78743C10.0828 5.84681 9.80156 4.78587 9.18594 3.63118C8.67656 2.67181 7.96875 1.92337 7.08437 1.4015L6.43906 1.02181C6.35469 0.971808 6.24688 1.03743 6.25156 1.13587L6.28594 1.88587C6.30937 2.39837 6.25 2.8515 6.10938 3.22806C5.9375 3.689 5.69062 4.11712 5.375 4.5015C5.15535 4.76863 4.90639 5.01024 4.63281 5.22181C3.97391 5.72832 3.43815 6.37733 3.06562 7.12025C2.69402 7.86964 2.50045 8.69471 2.5 9.53118C2.5 10.2687 2.64531 10.9827 2.93281 11.6562C3.21042 12.3046 3.61103 12.893 4.1125 13.389C4.61875 13.889 5.20625 14.2827 5.86094 14.5562C6.53906 14.8406 7.25781 14.9843 8 14.9843C8.74219 14.9843 9.46094 14.8406 10.1391 14.5577C10.7921 14.2859 11.386 13.8895 11.8875 13.3906C12.3938 12.8906 12.7906 12.3062 13.0672 11.6577C13.3543 10.9861 13.5015 10.2631 13.5 9.53274C13.5 8.77024 13.3438 8.02962 13.0328 7.33118Z" fill="#EF4444"/>
</svg>

<svg width="16" height="16" fill="none" xmlns="http://www.w3.org/2000/svg"><path d="M13.033 7.331a5.43 5.43 0 00-1.295-1.8l-.455-.417a.126.126 0 00-.203.052l-.203.582c-.127.366-.36.74-.69 1.107a.098.098 0 01-.064.03.086.086 0 01-.067-.023.092.092 0 01-.031-.075c.058-.94-.223-2.001-.84-3.156-.508-.96-1.216-1.708-2.1-2.23l-.646-.38a.125.125 0 00-.187.115l.034.75c.023.512-.036.966-.177 1.342-.171.461-.418.89-.734 1.273a4.62 4.62 0 01-.742.72 5.51 5.51 0 00-1.567 1.9 5.434 5.434 0 00-.133 4.535 5.49 5.49 0 002.928 2.9A5.497 5.497 0 008 14.984c.742 0 1.46-.143 2.14-.426a5.447 5.447 0 001.747-1.167A5.408 5.408 0 0013.5 9.533c0-.763-.156-1.503-.467-2.202z" fill="#EF4444"/></svg>
